X: 16768
T: Hareshaw Burn
R: jig
M: 6/8
K: Cmajor
|:cBG FGB|cFG Bcd|c2f e2d|edc dcB|
cBG FGB|cFG Bcd|EFG edc|DEF dcB:|
A2F Acf|edc dBG|EFG edc|DEF dcB|
A2F Acf|edc dcB|gfe fed|edc dcB||
c2F Acf|edc dBG|EFG edc|DEF dcB|
A2F Acf|edc dcB|gfe fed|edc dcB||

